!!!OTL: Angelus domini ad pastores...
**kern
*staff1
=1-
*clefF4
*k[b-]
*met(c|)
*M2/2
1F
2F\
2F\
=2
1F
2F\
2BB-/
=3
1.BB-
2BB-/
=4
0C
=5
1C
2C/
2C/
=6
2F\
2F\
2BB-/
2F\
=7
2G\
2E\
1F
=8
0C
=9
!!linebreak:original
2r
2D\
1BB-
=10
2F\
2F\
1C
=11
2r
2C/
2BB-/
2C/
=12
2D\
2E\
2F\
2F\
=13
2E\
2F\
2BB-/
2BB-/
=14
!!linebreak:original
1F
2C/
2D\
=15
2C/
2D\
1C
=16
0FF
=17
1F
2C/
4C/
4C/
=18
4G\
4F\
4E\
4G\
1F
=19
!!linebreak:original
2r
2F\
2C/
2BB-/
0C
=20
2C/
4D\
4BB-/
2C/
2C/
=21
0FF
=22
1F
1F
=23
4F\
4F\
4F\
4F\
2F\
2F\
=24
1F
1F
=25
!!linebreak:original
4E\
4D\
1C
1C
=26
2C/
4F\
4F\
4C/
4C/
4F\
4F\
=27
4C/
4C/
4F\
4F\
4C/
4C/
2F\
=28
2C/
4D\
4BB-/
1C
0FF
==
*-
!!title: @{OTL}, @{GTL}, ed. @{ENC}
!!!pag:
!!!GTL: Hymnbook D
!!!EFL: 
!!!YEM: Creative Commons CC/BY/NC/SA 4.0
!!!ENC: Marcin Konik
!!!END: 2015-0m-dd
!!!EED: Marcin Konik
!!!EEV: 
!!!ONB: Encoded in vim by Marcin Konik
!!!CharacterEncoding: utf-8
!!!RDF**kern: l=long note in original notation
!!!RDF**kern: i=editorial accidental
!!muse2ps: z14jc180F
!!!COM: Anonim
!!!CDT: [?]
!!!TXO: Polish
!!!ODT: 
!!!GTL: Hymnbook D
!!!ARL: Opactwo św. Wojciecha, Staniątki 
!!!voices:	1
